priv/static/images/languages/html.svg

<svg
  width="128"
  height="128"
  viewBox="0 0 128 128"
  fill="none"
  xmlns="http://www.w3.org/2000/svg"
>
  <path
    d="M19.0372 113.876L9.03223 1.66113H118.968L108.952 113.859L63.9332 126.339L19.0372 113.876Z"
    fill="#E44D26"
  />
  <path
    d="M64 116.8L100.378 106.714L108.937 10.8359H64V116.8Z"
    fill="#F16529"
  />
  <path
    d="M63.9998 52.4551H45.7878L44.5298 38.3611H63.9998V24.5991H29.4888L29.8188 28.2911L33.2008 66.2181H63.9998V52.4551ZM63.9998 88.1981L63.9388 88.2151L48.6118 84.0751L47.6328 73.1001H33.8158L35.7438 94.7091L63.9368 102.535L63.9998 102.518V88.1981Z"
    fill="#EBEBEB"
  />
  <path
    d="M63.9521 52.4551V66.2181H80.8992L79.3022 84.0671L63.9521 88.2101V102.529L92.1671 94.7091L92.3741 92.3841L95.6082 56.1511L95.9431 52.4551H92.2351H63.9521ZM63.9521 24.5991V38.3611H97.1961L97.4721 35.2691L98.1001 28.2911L98.4291 24.5991H63.9521Z"
    fill="white"
  />
</svg>

<svg xmlns="http://www.w3.org/2000/svg" width="128" height="128" fill="none"><path fill="#E44D26" d="M19.037 113.876 9.032 1.661h109.936L108.952 113.86l-45.019 12.48z"/><path fill="#F16529" d="m64 116.8 36.378-10.086 8.559-95.878H64z"/><path fill="#EBEBEB" d="M64 52.455H45.788L44.53 38.361H64V24.6H29.489l.33 3.692L33.2 66.218H64zm0 35.743-.061.017-15.327-4.14-.98-10.975H33.817l1.928 21.61 28.193 7.825.063-.017z"/><path fill="#fff" d="M63.952 52.455v13.763H80.9l-1.597 17.85-15.35 4.142v14.319l28.215-7.82.207-2.325 3.234-36.233.335-3.696zm0-27.856v13.762h33.244l.276-3.092.628-6.978.33-3.692z"/></svg>
